X:147
T:The Glountane Cross
C:Terence "Cuz" Teahan
B:Terry "Cuz" Teahan "Sliabh Luachra on Parade" 1980
Z:Patrick Cavanagh
M:4/4
L:1/8
R:Hornpipe
K:G
D | ABAG AGFD | defd gfdc | BcGB cAFA | GABG AGFD | 
GABG AGFD | defg agfd | BcGB cAFA | G2GG G3 :| 
f | gede fgag | fddc cAAB | cBAF GABG | ABAG FD2f | 
gfde fgaf | gaba gedc | BcGB cAFA | G2GG G3 :|| 

